X:77
T:Rodney's Glory
R:set dance
E:7
I:speed 300
M:C|
K:G
ed|c2Bc ABcA|(3BAG EF G4|e=fed cde^f|gfge d=fed|\
c2Bc ABcA|(3BAG EF G2ed|c2BA GABG|~A3B A2:|*
|eaag abag|eged c3d|(3efg fg agec|dcAF G4|\
AGAB cBcd|ed(3efg a4|aged cdef|gfge d=fed|\
c2Bc ABcA|(3BAG EF G2ed|c2BA GABG|~A3B A2||**
<end>
<start>
